X: 13436
T: Flogging, The
R: reel
M: 4/4
K: Gmajor
|BGG/A/G BGdG|BGGA Bdgd|BGGF FGBc|AGFG ABcA|
BDGA BGcG|BDGA Bdgd|B/d/BAc ABcB|AGFG ABcA||
Bdgd B3d|fgag fgaf|gfgd ABcB|AGFG ABcA|
Bdgd BGBd|g/a/geg fgaf|g2gf gedB|cBAG FGAc||
Bdgd edgd|Bdgd BGGB|Acfc Acfc|A/B/cfc BDGA|
Bdgd edgd|Bdef g3a|b/a/g a/g/f gedB|cBAG FGAc||

